src/32x32/places/folder-gruvbox-original-purple-desktop.svg

<?xml version="1.0" encoding="UTF-8"?>
<svg width="32" height="32" version="1.1" xmlns="http://www.w3.org/2000/svg">
 <rect x="2" y="4" width="28" height="26" rx="1.4" ry="1.4" opacity=".2"/>
 <path d="m2 7v20.6c0 0.775 0.6248 1.4 1.4 1.4h25.2c0.775 0 1.4-0.625 1.4-1.4v-20.6l-1-1h-26z" fill="#d3869b"/>
 <path d="m3.4 3c-0.775 0-1.4 0.625-1.4 1.4v2.6h28v-2.6c0-0.775-0.625-1.4-1.4-1.4z" fill="#393534"/>
 <path d="m10.4 25c-0.7752 0-1.4 0.625-1.4 1.4v2.6h13v-2.6c0-0.775-0.625-1.4-1.4-1.4h-10.2z" fill="#393534"/>
 <path d="m3.4 3c-0.775 0-1.4 0.625-1.4 1.4v1c0-0.775 0.625-1.4 1.4-1.4h25.2c0.775 0 1.4 0.625 1.4 1.4v-1c0-0.775-0.625-1.4-1.4-1.4z" fill="#E1D4B6" opacity=".1"/>
</svg>

<svg xmlns="http://www.w3.org/2000/svg" width="32" height="32" version="1.1">
 <rect style="opacity:0.2" width="28" height="26" x="2" y="4" rx="1.4" ry="1.4"/>
 <path style="fill:#d3869b" d="M 2,7 V 27.6 C 2,28.375 2.6248,29 3.4,29 H 28.6 C 29.375,29 30,28.375 30,27.6 V 7 L 29,6 H 3 Z"/>
 <path style="fill:#393534" d="M 3.4,3 C 2.625,3 2,3.625 2,4.4 V 7 H 30 V 4.4 C 30,3.625 29.375,3 28.6,3 Z"/>
 <path style="fill:#393534" d="M 10.4 25 C 9.6248 25 9 25.625 9 26.4 L 9 29 L 22 29 L 22 26.4 C 22 25.625 21.375 25 20.6 25 L 10.4 25 z"/>
 <path style="opacity:0.1;fill:#E1D4B6" d="M 3.4,3 C 2.625,3 2,3.625 2,4.4 V 5.4 C 2,4.625 2.625,4 3.4,4 H 28.6 C 29.375,4 30,4.625 30,5.4 V 4.4 C 30,3.625 29.375,3 28.6,3 Z"/>
</svg>
